X:1
T:Ann Arbor, 87.87.77.77
T:Ann Arbor, 87.87.77.77
T:Franklin Lycurgus Eiland, 1909
T:Public Domain Courtesy of the Cyber Hymnal™
C:Franklin Lycurgus Eiland, 1909
Z:Public Domain
Z:Courtesy of the Cyber Hymnal™
%%score 1 ( 2 3 )
L:1/8
Q:1/4=105
M:4/4
K:Eb
V:1 treble 
V:2 bass 
V:3 bass 
V:1
 [B,E]2 [EG]2 [GB]3 [GB] | [Ac]2 [Ae]2 [Ac] [GB]2 z | [GB]3 [GB] [Ac] [GB]2 z | [EG]2 [EG]2 [DF]4 | %4
 [B,E]2 [EG]2 [GB]3 [GB] | [Ac]2 [Ae]2 [Ac] [GB]2 z | [GB]3 [GB] [EG] [EG]2 z | %7
 [DF]2 [DF]2 [B,E]4 | [GB]3 [GB] [Ac] [Ae]2 z | [Ae]2 [Ac]2 [GB]4 | [GB]3 [GB] [Ac] [GB]2 z | %11
 [EG]2 [EG]2 [DF]4 | [B,E]2 [EG]2 [GB]3 [GB] | [Ac]2 [Ae]2 [Ac] [GB]2 z | [GB]3 [GB] [EG] [EG]2 z | %15
 [DF]2 [DF]2 [B,E]4 |] %16
V:2
 [E,G,]2 [E,B,]2 [E,E]3 [E,E] | [A,E]2 [A,C]2 [E,E] [E,E]2 z | [E,E]3 [E,E] [E,E] [E,E]2 z | %3
 ([E,B,][C,C]) [F,=A,]2 (B,2 _A,2) | [E,G,]2 [E,B,]2 [E,E]3 [E,E] | [A,E]2 [A,C]2 [E,E] [E,E]2 z | %6
 [E,E]3 [E,E] [E,B,] [E,B,]2 z | [B,,A,]2 [B,,A,]2 [E,G,]4 | [E,E]3 [E,E] [A,E] [A,C]2 z | %9
 [A,C]2 [A,E]2 [E,E]4 | [E,E]3 [E,E] [E,E] [E,E]2 z | ([E,B,][C,C]) [F,=A,]2 (B,2 _A,2) | %12
 [E,G,]2 [E,B,]2 [E,E]3 [E,E] | [A,E]2 [A,C]2 [E,E] [E,E]2 z | [E,E]3 [E,E] [E,B,] [E,B,]2 z | %15
 [B,,A,]2 [B,,A,]2 [E,G,]4 |] %16
V:3
 x8 | x8 | x8 | x4 B,,4 | x8 | x8 | x8 | x8 | x8 | x8 | x8 | x4 B,,4 | x8 | x8 | x8 | x8 |] %16

